flaticon/pins-and-locations/pin-21.svg

<svg xmlns="http://www.w3.org/2000/svg" width="32" height="32" viewBox="0 0 24 24">
    <path d="M 18.390625 6.390625 C 18.390625 2.875 15.515625 0 12 0 C 8.484375 0 5.609375 2.875 5.609375 6.390625 C 5.609375 9.226562 7.484375 11.648438 10.058594 12.476562 L 10.800781 22.84375 C 10.84375 23.519531 11.359375 24 12 24 C 12.640625 24 13.15625 23.480469 13.199219 22.800781 L 13.984375 12.460938 C 16.535156 11.621094 18.390625 9.210938 18.390625 6.390625 Z M 12.398438 22.761719 C 12.398438 23 12.238281 23.203125 12 23.203125 C 11.761719 23.203125 11.601562 22.960938 11.601562 22.761719 L 10.882812 12.699219 C 11.679688 12.859375 12.4375 12.820312 13.117188 12.699219 Z M 12 11.980469 C 8.925781 11.980469 6.410156 9.464844 6.410156 6.390625 C 6.410156 3.316406 8.925781 0.796875 12 0.796875 C 15.074219 0.796875 17.589844 3.316406 17.589844 6.390625 C 17.589844 9.464844 15.074219 11.980469 12 11.980469 Z M 12 11.980469"/>
    <path d="M 12 2.796875 C 10.722656 2.796875 9.523438 3.472656 8.886719 4.59375 C 8.804688 4.792969 8.84375 5.03125 9.042969 5.152344 C 9.203125 5.230469 9.484375 5.191406 9.5625 4.992188 C 10.082031 4.113281 11 3.59375 12 3.59375 C 13.558594 3.59375 14.796875 4.832031 14.796875 6.390625 C 14.796875 7.945312 13.558594 9.183594 12 9.183594 C 10.910156 9.183594 9.933594 8.542969 9.476562 7.585938 L 10.402344 7.585938 L 10.402344 6.789062 L 8.964844 6.789062 C 8.910156 6.777344 8.855469 6.777344 8.804688 6.789062 L 8.007812 6.789062 L 8.007812 9.183594 L 8.804688 9.183594 L 8.804688 8.039062 C 9.40625 9.203125 10.632812 9.984375 12 9.984375 C 13.996094 9.984375 15.59375 8.386719 15.59375 6.390625 C 15.59375 4.394531 13.996094 2.796875 12 2.796875 Z M 12 2.796875"/>
</svg>

<svg xmlns="http://www.w3.org/2000/svg" width="32" height="32" viewBox="0 0 24 24">
    <path d="M18.39 6.39C18.39 2.876 15.517 0 12 0 8.484 0 5.61 2.875 5.61 6.39c0 2.837 1.874 5.258 4.449 6.087l.742 10.367C10.844 23.52 11.359 24 12 24c.64 0 1.156-.52 1.2-1.2l.784-10.34c2.551-.839 4.407-3.25 4.407-6.07zm-5.992 16.372c0 .238-.16.441-.398.441-.238 0-.398-.242-.398-.441l-.72-10.063a5.96 5.96 0 0 0 2.235 0zM12 11.98c-3.074 0-5.59-2.515-5.59-5.59C6.41 3.317 8.926.798 12 .798s5.59 2.52 5.59 5.594c0 3.074-2.516 5.59-5.59 5.59zm0 0"/>
    <path d="M12 2.797a3.578 3.578 0 0 0-3.113 1.797c-.082.199-.043.437.156.558.16.078.441.04.52-.16A2.816 2.816 0 0 1 12 3.594a2.78 2.78 0 0 1 2.797 2.797A2.778 2.778 0 0 1 12 9.184c-1.09 0-2.066-.641-2.523-1.598h.925v-.797H8.965a.37.37 0 0 0-.16 0h-.797v2.395h.797V8.039A3.61 3.61 0 0 0 12 9.984a3.58 3.58 0 0 0 3.594-3.593A3.58 3.58 0 0 0 12 2.797zm0 0"/>
</svg>
